X:82
T:Farewell to Leitrim* (reel)
T:Lawson's Favorite 
B:CRE2.279 (gan ainm)
F:file ID: cre.2/082fare_L
L:1/8
M:C
R:reel % A-B-A
Q:180
K:D
gfe||d2AG FDD2|E=c (3cBc Ec (3cBc|dB=cA BGAG|FGEF Dgfe|
d2AG FAD2|E=c (3cBc Ec (3cBc|dB=cA BGAF|GFEG FDD||
g|fdd/c/d edg2|fdd/c/d =cdeg|fdd/c/d fdA=c|dfag fdde|
fdd/c/d fagf|e=cc/B/c efg2|(3agf (3gfe fdfg|a2ag fgfe||

%%%

